icons/eye-close-line.svg

<svg viewBox="0 0 24 24" fill="currentColor" xmlns="http://www.w3.org/2000/svg">
    <path d="M9.34268 18.7819L7.41083 18.2642L8.1983 15.3254C7.00919 14.8874 5.91661 14.2498 4.96116 13.4534L2.80783 15.6067L1.39362 14.1925L3.54695 12.0392C2.35581 10.6103 1.52014 8.87466 1.17578 6.96818L3.14386 6.61035C3.90289 10.8126 7.57931 14.0001 12.0002 14.0001C16.4211 14.0001 20.0976 10.8126 20.8566 6.61035L22.8247 6.96818C22.4803 8.87466 21.6446 10.6103 20.4535 12.0392L22.6068 14.1925L21.1926 15.6067L19.0393 13.4534C18.0838 14.2498 16.9912 14.8874 15.8021 15.3254L16.5896 18.2642L14.6578 18.7819L13.87 15.8418C13.2623 15.9459 12.6376 16.0001 12.0002 16.0001C11.3629 16.0001 10.7381 15.9459 10.1305 15.8418L9.34268 18.7819Z"/>
</svg>

<svg xmlns="http://www.w3.org/2000/svg" viewBox="0 0 24 24">
    <g>
        <path fill="none" d="M0 0h24v24H0z"/>
        <path d="M9.342 18.782l-1.931-.518.787-2.939a10.988 10.988 0 0 1-3.237-1.872l-2.153 2.154-1.415-1.415 2.154-2.153a10.957 10.957 0 0 1-2.371-5.07l1.968-.359C3.903 10.812 7.579 14 12 14c4.42 0 8.097-3.188 8.856-7.39l1.968.358a10.957 10.957 0 0 1-2.37 5.071l2.153 2.153-1.415 1.415-2.153-2.154a10.988 10.988 0 0 1-3.237 1.872l.787 2.94-1.931.517-.788-2.94a11.072 11.072 0 0 1-3.74 0l-.788 2.94z"/>
    </g>
</svg>
